public/medias/icons/Squarespace.svg

<?xml version="1.0" encoding="UTF-8" standalone="no"?><svg width="800px" height="800px" viewBox="0 -26 256 256" version="1.1" xmlns="http://www.w3.org/2000/svg" xmlns:xlink="http://www.w3.org/1999/xlink" preserveAspectRatio="xMidYMid"><g><path d="M162.931025,40.6692367 C158.108009,35.8462208 150.287249,35.8462208 145.466793,40.6692367 L66.8700656,119.268524 C57.2189139,128.911995 41.5825121,128.911995 31.9390403,119.268524 C22.2853286,109.622492 22.2853286,93.9835301 31.9390403,84.3323783 L109.022815,7.24860376 C99.3767831,-2.399988 83.7352613,-2.399988 74.0892296,7.24860376 L14.4671277,66.8681457 C-4.82237589,86.1627692 -4.82237589,117.438133 14.4671277,136.735316 C33.7617512,156.02994 65.0371148,156.02994 84.3317383,136.735316 L162.931025,58.1360293 C167.751481,53.3130134 167.751481,45.4922525 162.931025,40.6692367 L162.931025,40.6692367 Z M189.129934,14.4728876 C169.835311,-4.82429588 138.559947,-4.82429588 119.265324,14.4728876 L40.6685967,93.0670547 C35.8481408,97.8875106 35.8481408,105.713391 40.6685967,110.533847 C45.4916125,115.356863 53.3098135,115.356863 58.1328293,110.533847 L136.734676,31.9396803 C146.380708,22.2910885 162.01711,22.2910885 171.660582,31.9396803 C176.488718,36.7601362 184.306918,36.7601362 189.129934,31.9396803 C193.95295,27.1115444 193.95295,19.2959035 189.129934,14.4728876 L189.129934,14.4728876 Z M215.331403,93.0670547 C210.508387,88.2491588 202.685067,88.2491588 197.862051,93.0670547 L119.265324,171.663782 C109.619292,181.309813 93.9777701,181.309813 84.3317383,171.663782 C79.5112824,166.843326 71.6930815,166.843326 66.8700656,171.663782 C62.0393698,176.489358 62.0393698,184.310118 66.8700656,189.128014 C86.1570092,208.422638 117.440053,208.422638 136.734676,189.128014 L215.331403,110.533847 C220.151859,105.713391 220.151859,97.8875106 215.331403,93.0670547 L215.331403,93.0670547 Z M241.532872,66.8707056 C222.238249,47.5786421 190.957765,47.5786421 171.668262,66.8707056 L93.0664147,145.469993 C88.2433988,150.287889 88.2433988,158.113769 93.0664147,162.934225 C97.8919905,167.759801 105.712751,167.759801 110.533207,162.934225 L189.129934,84.3374983 C198.773406,74.6889066 214.417488,74.6889066 224.06096,84.3374983 C233.706991,93.9835301 233.706991,109.622492 224.06096,119.268524 L146.977185,196.354858 C156.623217,205.99833 172.257059,205.99833 181.91077,196.354858 L241.532872,136.735316 C260.822376,117.438133 260.822376,86.1627692 241.532872,66.8707056 L241.532872,66.8707056 Z" fill="#1A1918"></path></g></svg>

<svg xmlns="http://www.w3.org/2000/svg" width="800" height="800" preserveAspectRatio="xMidYMid" viewBox="0 -26 256 256">
  <path fill="#1A1918" d="M162.93 40.67a12.35 12.35 0 0 0-17.46 0l-78.6 78.6a24.7 24.7 0 0 1-34.93-34.94l77.08-77.08a24.7 24.7 0 0 0-34.93 0L14.47 66.87a49.41 49.41 0 0 0 69.86 69.87l78.6-78.6a12.36 12.36 0 0 0 0-17.47Zm26.2-26.2a49.4 49.4 0 0 0-69.86 0l-78.6 78.6a12.36 12.36 0 0 0 17.46 17.46l78.6-78.59a24.69 24.69 0 0 1 34.93 0 12.36 12.36 0 0 0 17.47-17.47Zm26.2 78.6a12.36 12.36 0 0 0-17.47 0l-78.6 78.6a24.7 24.7 0 0 1-34.93 0 12.35 12.35 0 0 0-17.46 17.46 49.4 49.4 0 0 0 69.86 0l78.6-78.6a12.36 12.36 0 0 0 0-17.46Zm26.2-26.2a49.4 49.4 0 0 0-69.86 0l-78.6 78.6a12.35 12.35 0 1 0 17.46 17.46l78.6-78.6a24.7 24.7 0 1 1 34.93 34.94l-77.08 77.08a24.7 24.7 0 0 0 34.93 0l59.62-59.61a49.4 49.4 0 0 0 0-69.87Z"/>
</svg>
